resources/haticons/SVG/integration_instructions.svg

<!-- Generated by IcoMoon.io -->
<svg version="1.1" xmlns="http://www.w3.org/2000/svg" width="24" height="24" viewBox="0 0 24 24">
<title>integration_instructions</title>
<path d="M18.984 3h-4.172q-0.328-0.891-1.078-1.453t-1.734-0.563-1.734 0.563-1.078 1.453h-4.172q-0.234 0-0.422 0.047-0.563 0.094-0.984 0.563-0.281 0.281-0.469 0.609-0.141 0.375-0.141 0.797v13.969q0 0.422 0.141 0.797 0.141 0.328 0.469 0.656 0.422 0.422 0.984 0.516 0.188 0.047 0.422 0.047h13.969q0.844 0 1.43-0.586t0.586-1.43v-13.969q0-0.844-0.586-1.43t-1.43-0.586zM11.016 14.156l-1.406 1.453-3.609-3.609 3.609-3.609 1.406 1.453-2.203 2.156zM12 4.266q-0.328 0-0.539-0.234t-0.211-0.516q0-0.328 0.211-0.539t0.539-0.211 0.539 0.211 0.211 0.539q0 0.281-0.211 0.516t-0.539 0.234zM14.391 15.609l-1.406-1.453 2.203-2.156-2.203-2.156 1.406-1.453 3.609 3.609z"></path>
</svg>

<svg xmlns="http://www.w3.org/2000/svg" width="24" height="24"><path d="M18.984 3h-4.172q-.328-.891-1.078-1.453T12 .984t-1.734.563T9.188 3H5.016q-.234 0-.422.047-.563.094-.984.563-.281.281-.469.609Q3 4.594 3 5.016v13.969q0 .422.141.797.141.328.469.656.422.422.984.516.188.047.422.047h13.969q.844 0 1.43-.586t.586-1.43V5.016q0-.844-.586-1.43T18.985 3zm-7.968 11.156L9.61 15.609 6.001 12 9.61 8.391l1.406 1.453L8.813 12zM12 4.266q-.328 0-.539-.234t-.211-.516q0-.328.211-.539T12 2.766t.539.211.211.539q0 .281-.211.516T12 4.266zm2.391 11.343l-1.406-1.453L15.188 12l-2.203-2.156 1.406-1.453L18 12z"/></svg>
